X: 394
T: Bir Nazar Eyledim
C: Neşet Ertaş
O: Turkey
F: http://compmusic.upf.edu/node/140
N: muhayyer--turku--nimsofyan--bir_nazar--kirsehir
N: makam= muhayyer
N: form= turku
N: usul= nimsofyan = 2/4
M: 2/4
L: 1/16
K: C _2/4B ^3/4f  
Q: 1/4=75
%%MIDI tuningsystem comma53
z2dd ddd2  | d3/2c/dd dce2  | e2dB c2cB  | \
w:   |   |   | 
B4 AAA2  | 
w:   | 
z2dd ddd2  | d3/2c/dd dce2  | e2dB c2cB  | \
w:   |   |   | 
B4 AAA2  | 
w:   | 
z2fg aa3  | aa3 a2a2  | agba ag2f  | z2fg aa3  | 
w:  Bir  na zar_ ey  |  le dim  hoş  ce  |  mâ *  li ne    |  Yak tı  bu  bağ  | 
aa2g gfgf  | ef2e fe2d  | dd2c dce2  | ed2B c2{d}c{d}B  | 
w:  rı mı  nâ *  ra   |  sev  |  di ğim    |  SAZ  | 
B4 AAA2  | z2fg aa3  | aa3 a2a2  | agba ag2f  | \
w:   |  Bir  na zar_ ey  |  le dim  hoş  ce  |  mâ *  li ne    | 
z2fg aa3  | 
w:  Yak tı  bu  bağ  | 
aa2g gfgf  | ef2e fe2d  | dd2c dce2  | ed2B c2{d}c{d}B  | 
w:  rı mı  nâ *  ra   |  sev  |  di ğim    |  SAZ  | 
B4 AAA2  | z2dd ddd2  | d3/2c/dd dce2  | \
w:   |  SAZ  |   | 
e2dB c2cB  | 
w:   | 
B4 AAA2  | z2dd ddd2  | d3/2c/dd dce2  | \
w:   |  SAZ  |   | 
e2dB c2cB  | 
w:   | 
B4 AAA2  | z2fg aa3  | aa3 a2a2  | agba ag2f  | \
w:   |  Dos tun  bah ça  |  sı na  gi ril  |  me *  yin ce    | 
z2fg aa3  | 
w:  A çıl mış  gon  | 
aa2g gfgf  | ef2e fe2d  | dd2c dce2  | ed2B c2{d}c{d}B  | 
w:  ca lar  de *  ril  |  me  |  yin ce    |  SAZ  | 
B4 AAA2  | z2fg aa3  | aa3 a2a2  | agba ag2f  | \
w:   |  Dos tun  bah ça  |  sı na  gi ril  |  me *  yin ce    | 
z2fg aa3  | 
w:  A çıl mış  gon  | 
aa2g gfgf  | ef2e fe2d  | dd2c dce2  | ed2B c2{d}c{d}B  | 
w:  ca lar  de *  ril  |  me  |  yin ce    |  SAZ  | 
B4 AAA2  | z2dd ddd2  | d3/2c/dd dce2  | \
w:   |  SAZ  |   | 
e2dB c2cB  | 
w:   | 
B4 AAA2  | z2dd ddd2  | d3/2c/dd dce2  | \
w:   |  SAZ  |   | 
e2dB c2cB  | 
w:   | 
B4 AAA2  | z2fg aa3  | aa3 a2a2  | agba ag2f  | \
w:   |  Öz  gö nül den   |  şu  yü zü me   |  gül *  mez sen    | 
z2fg aa3  | 
w:  El ler  gi bi   | 
aa2g gfgf  | ef2e fe2d  | dd2c dce2  | ed2B c2{d}c{d}B  | 
w:  sen  ha lim *  den   |  bil  |  mez sen    |  SAZ  | 
B4 AAA2  | z2fg aa3  | aa3 a2a2  | agba ag2f  | \
w:   |  Öz  gö nül den   |  şu  yü zü me   |  gül *  mez sen    | 
z2fg aa3  | 
w:  El ler  gi bi   | 
aa2g gfgf  | ef2e fe2d  | dd2c dce2  | ed2B c2{d}c{d}B  | 
w:  sen  ha lim *  den   |  bil  |  mez sen    |  SAZ  | 
B4 AAA2  | z2dd ddd2  | d3/2c/dd dce2  | \
w:   |  SAZ  |   | 
e2dB c2cB  | 
w:   | 
B4 AAA2  | z2dd ddd2  | d3/2c/dd dce2  | \
w:   |  SAZ  |   | 
e2dB c2cB  | 
w:   | 
B4 AAA2  | z2fg aa3  | aa3 a2a2  | agba ag2f  | \
w:   |  Yan dı  bağ rım   |  yan dı  yâr  de  |  yi  *  de yi    | 
z2fg aa3  | 
w:  Gö nül  yâr  is  | 
aa2g gfgf  | ef2e fe2d  | dd2c dce2  | ed2B c2{d}c{d}B  | 
w:  ti yor  ya *  ram   |  sar   |  de yi    |  SAZ  | 
B4 AAA2  | z2cd ee3  | ee3 ee3  | ed=fe eddc  | 
w:   |  Şu ra da  bir   |  ga rip  yâ rim   |  var  *  de yi    | 
z2cd e2e2  | e2e2 ee3  | ed=fe eddc  | dced dccB  | 
w:  Ha tır dan  çı  |  kart ma  a ra   |  sev *  di ğim    |  sev *  di ğim    | 
cBdc cBBA  | BAcB BAA2  | A3A AAA2  | cBdc cBBA  | 
w:  sev *  di ğim    |  sev *  di ğim    |  SAZ  |  Sev *  di ğim    | 
BAcB BAA2  | A8  | |


